public/assets/logo/logo-no-bg.svg

<svg width="50" height="40" viewBox="0 0 50 40" fill="none" xmlns="http://www.w3.org/2000/svg">
<path d="M0 19.9989L10.8415 9.25265L13.9384 12.3224L6.19388 19.9989L13.9384 27.6754L10.8415 30.7452L0 19.9989ZM17.9618 38.9471L27.787 0L32.036 1.05292L22.213 40L17.9618 38.9471ZM36.0594 27.6754L43.8039 19.9989L36.0594 12.3224L39.1585 9.25265L50 19.9989L39.1585 30.7452L36.0594 27.6754Z" fill="white"/>
</svg>

<svg width="50" height="40" fill="none" xmlns="http://www.w3.org/2000/svg"><path d="M0 19.999 10.841 9.253l3.097 3.07-7.744 7.676 7.744 7.676-3.097 3.07L0 20Zm17.962 18.948L27.787 0l4.249 1.053L22.213 40l-4.251-1.053Zm18.097-11.272L43.804 20l-7.745-7.677 3.1-3.07L50 20 39.158 30.745l-3.099-3.07Z" fill="#fff"/></svg>
